docs/img/values/hand.svg

<svg width="48" height="48" viewBox="0 0 48 48" fill="none" xmlns="http://www.w3.org/2000/svg">
<g clip-path="url(#clip0_3393:1306)">
<path d="M7 44H1.5C0.672 44 0 43.328 0 42.5V25.5C0 24.672 0.672 24 1.5 24C8.512 24 11.776 26.434 11.91 26.538C12.394 26.908 12.608 27.534 12.448 28.122L8.448 42.894C8.272 43.546 7.678 44 7 44ZM3 41H5.852L9.248 28.458C8.202 27.964 6.158 27.228 3 27.044V41Z" fill="#FF5A30"/>
<path d="M26.0002 48C21.4822 48 13.1542 44.542 6.96221 41.638C6.21221 41.286 5.89021 40.392 6.24221 39.642C6.59221 38.892 7.48821 38.566 8.23621 38.92C16.4762 42.786 22.9522 45 26.0002 45C30.0562 45 39.2642 40.618 44.0902 38.09C43.5342 37.772 42.7062 37.5 41.5002 37.5C39.7402 37.5 37.5702 38.22 35.4722 38.916C34.7902 39.142 34.1102 39.368 33.4362 39.574C31.9522 40.032 30.2002 40.5 28.4982 40.5C24.2842 40.5 18.7202 38.496 18.4862 38.41C17.7062 38.126 17.3042 37.266 17.5882 36.488C17.8722 35.708 18.7342 35.31 19.5102 35.59C19.5622 35.61 24.8142 37.5 28.4982 37.5C29.8102 37.5 31.3562 37.076 32.5562 36.706C33.2082 36.506 33.8662 36.288 34.5242 36.07C36.8482 35.298 39.2502 34.5 41.4962 34.5C46.4542 34.5 47.8322 37.802 47.8882 37.944C48.1702 38.646 47.8822 39.448 47.2202 39.814C46.6202 40.148 32.3142 48 26.0002 48Z" fill="#FF5A30"/>
<path d="M32.9998 39.6795C32.1718 39.6795 31.4998 39.0075 31.4998 38.1795V37.2795C31.4998 36.0975 30.6578 35.0655 29.4998 34.8295L10.2378 30.8895C9.42776 30.7235 8.90376 29.9315 9.06976 29.1195C9.23576 28.3075 10.0298 27.7895 10.8398 27.9515L30.1018 31.8915C32.6498 32.4115 34.4998 34.6795 34.4998 37.2815V38.1815C34.4998 39.0075 33.8278 39.6795 32.9998 39.6795Z" fill="#FF5A30"/>
<path d="M36 27.9991C35.8 27.9991 35.602 27.959 35.414 27.879C34.948 27.681 24 22.915 24 13.107V5.07105C24 4.42905 24.408 3.85905 25.018 3.65105L35.518 0.0790469C35.83 -0.0289531 36.17 -0.0289531 36.482 0.0790469L46.982 3.65105C47.592 3.85705 48 4.42705 48 5.07105V13.107C48 22.915 37.052 27.6831 36.586 27.8811C36.398 27.959 36.2 27.9991 36 27.9991ZM27 6.14505V13.107C27 19.803 33.91 23.789 35.998 24.8391C38.082 23.783 45 19.7771 45 13.107V6.14505L36 3.08305L27 6.14505Z" fill="#FF5A30"/>
<path d="M35.4995 19.0003C35.1035 19.0003 34.7195 18.8423 34.4395 18.5603L30.4395 14.5603C29.8535 13.9743 29.8535 13.0243 30.4395 12.4383C31.0255 11.8523 31.9755 11.8523 32.5615 12.4383L35.3395 15.2163L40.2995 8.60027C40.7915 7.93828 41.7335 7.80227 42.3995 8.30027C43.0615 8.79827 43.1955 9.73827 42.6975 10.4003L36.6975 18.4003C36.4375 18.7483 36.0395 18.9663 35.6035 18.9963C35.5695 19.0003 35.5355 19.0003 35.4995 19.0003Z" fill="#FF5A30"/>
</g>
<defs>
<clipPath id="clip0_3393:1306">
<rect width="48" height="48" fill="white"/>
</clipPath>
</defs>
</svg>

<svg width="48" height="48" fill="none" xmlns="http://www.w3.org/2000/svg"><g clip-path="url(#clip0_3393:1306)" fill="#FF5A30"><path d="M7 44H1.5A1.5 1.5 0 010 42.5v-17A1.5 1.5 0 011.5 24c7.012 0 10.276 2.434 10.41 2.538a1.5 1.5 0 01.538 1.584l-4 14.772A1.5 1.5 0 017 44zm-4-3h2.852l3.396-12.542c-1.046-.494-3.09-1.23-6.248-1.414V41z"/><path d="M26 48c-4.518 0-12.846-3.458-19.038-6.362a1.5 1.5 0 011.274-2.718C16.476 42.786 22.952 45 26 45c4.056 0 13.264-4.382 18.09-6.91-.556-.318-1.384-.59-2.59-.59-1.76 0-3.93.72-6.028 1.416-.682.226-1.362.452-2.036.658-1.484.458-3.236.926-4.938.926-4.214 0-9.778-2.004-10.012-2.09a1.499 1.499 0 01-.898-1.922 1.503 1.503 0 011.922-.898c.052.02 5.304 1.91 8.988 1.91 1.312 0 2.858-.424 4.058-.794.652-.2 1.31-.418 1.968-.636 2.324-.772 4.726-1.57 6.972-1.57 4.958 0 6.336 3.302 6.392 3.444a1.5 1.5 0 01-.668 1.87C46.62 40.148 32.314 48 26 48z"/><path d="M33 39.68a1.5 1.5 0 01-1.5-1.5v-.9a2.51 2.51 0 00-2-2.45l-19.262-3.94a1.5 1.5 0 01.602-2.939l19.262 3.94a5.52 5.52 0 014.398 5.39v.9A1.5 1.5 0 0133 39.68zM36 28c-.2 0-.398-.041-.586-.121C34.948 27.681 24 22.915 24 13.107V5.071a1.5 1.5 0 011.018-1.42L35.518.08c.312-.108.652-.108.964 0l10.5 3.572c.61.206 1.018.776 1.018 1.42v8.036c0 9.808-10.948 14.576-11.414 14.774A1.527 1.527 0 0136 28zM27 6.144v6.962c0 6.696 6.91 10.682 8.998 11.732C38.082 23.783 45 19.777 45 13.107V6.145l-9-3.062-9 3.062z"/><path d="M35.5 19c-.397 0-.78-.158-1.06-.44l-4-4a1.5 1.5 0 112.122-2.122l2.778 2.778L40.3 8.6a1.499 1.499 0 112.398 1.8l-6 8c-.26.348-.659.566-1.095.596-.034.004-.068.004-.104.004z"/></g><defs><clipPath id="clip0_3393:1306"><path fill="#fff" d="M0 0h48v48H0z"/></clipPath></defs></svg>
